dist/img/common/logo.svg

<svg width="161" height="104" viewBox="0 0 161 104" fill="none" xmlns="http://www.w3.org/2000/svg">
<path d="M73.1657 36.1221L69.7907 36.1155L69.7709 47.5587L65.6695 47.5521L65.6893 36.1089L62.3143 36.1023L62.2945 47.5455L58.1733 47.5389L58.1931 36.0957L54.8182 36.0891L54.7917 50.4558L73.1392 50.4888L73.1657 36.1221Z" fill="#020303"/>
<path d="M75.3848 50.6141C75.497 50.6141 75.6225 50.6207 75.7744 50.6273C75.9263 50.6339 76.0981 50.6405 76.2896 50.6405C77.5114 50.6405 78.4361 50.3898 79.0701 49.875C79.7041 49.3603 80.1532 48.575 80.4108 47.5191C80.675 46.4632 80.8665 44.9387 80.9986 42.9524C81.025 42.7082 81.0581 42.1142 81.0845 41.1837C81.1439 39.8507 81.1769 39.0918 81.1902 38.9004L86.2558 38.907L86.236 50.5151L89.7761 50.5218L89.8025 36.1617L77.9803 36.1419C77.9539 37.1054 77.9275 37.8973 77.9143 38.5308C77.8549 40.5634 77.7954 42.0351 77.7426 42.9524C77.6567 44.259 77.5444 45.2357 77.3991 45.8824C77.2538 46.5358 77.0293 47.0043 76.7255 47.2881C76.4217 47.5785 75.9726 47.717 75.365 47.717H75.0744L75.0677 50.6009C75.1074 50.6009 75.1536 50.6009 75.1998 50.6009C75.2593 50.5943 75.3187 50.6009 75.3848 50.6141Z" fill="#020303"/>
<path d="M96.1495 47.7303L102.813 47.7435L103.685 50.5416L107.456 50.5482L102.516 36.1749L96.5259 36.1617L91.5395 50.5152L95.2645 50.5218L96.1495 47.7303ZM98.1176 41.5797C98.1573 41.4411 98.2035 41.3091 98.2431 41.1903C98.6196 39.9497 98.9432 38.8476 99.214 37.8775H99.8282C99.9008 38.1283 99.9669 38.3856 100.046 38.6496C100.185 39.138 100.324 39.6395 100.475 40.1609C100.806 41.2695 100.984 41.8833 101.03 41.9955L102.034 45.1631L96.9684 45.1565L97.9789 41.9889C98.0252 41.8569 98.078 41.7183 98.1176 41.5797Z" fill="#020303"/>
<path d="M112.76 39.204L120.098 39.2172V36.2079L109.226 36.1881L109.2 50.5548L112.74 50.5614L112.76 39.204Z" fill="#020303"/>
<path d="M66.1714 60.6055C65.1345 59.972 63.7145 59.6552 61.8983 59.6486H60.9274C60.1481 59.6486 59.5273 59.609 59.0848 59.543C58.6356 59.477 58.2988 59.345 58.0677 59.147C57.8365 58.9557 57.7176 58.6653 57.7176 58.2825C57.7176 57.7612 57.995 57.3586 58.5432 57.0683C59.0914 56.7779 59.798 56.6393 60.6632 56.6393C61.4756 56.6393 62.1691 56.7647 62.7503 57.0155C63.3315 57.2663 63.7409 57.6952 63.9721 58.3155L67.6971 58.3221C67.3734 56.7449 66.5875 55.6164 65.3458 54.9433C64.1042 54.2702 62.5455 53.927 60.6632 53.927C59.5669 53.927 58.53 54.0854 57.5525 54.4022C56.575 54.7255 55.7891 55.2205 55.1815 55.9002C54.5739 56.5799 54.2701 57.4114 54.2701 58.4013C54.2701 59.4968 54.5342 60.3481 55.0692 60.9553C55.6042 61.5624 56.291 61.9715 57.1364 62.1827C57.9818 62.4005 58.9725 62.5061 60.1085 62.5061H61.2841C61.9313 62.5061 62.4597 62.5457 62.8824 62.6249C63.2984 62.7041 63.6287 62.8559 63.8598 63.0802C64.091 63.3046 64.2099 63.6346 64.2099 64.0569C64.2099 64.6773 63.9259 65.126 63.3645 65.4032C62.8031 65.6804 62.0568 65.8255 61.1388 65.8189C60.1085 65.8189 59.3159 65.6738 58.7479 65.39C58.1865 65.1062 57.8233 64.6773 57.6582 64.1031L53.7483 64.0965C54.0719 65.7265 54.8645 66.9078 56.1127 67.6404C57.361 68.3729 58.9923 68.7358 61.0133 68.7424C62.2747 68.7424 63.4107 68.5774 64.4212 68.2475C65.4317 67.9109 66.2309 67.3896 66.8253 66.6702C67.4197 65.9509 67.7169 65.0468 67.7169 63.9645C67.7235 62.3543 67.2083 61.239 66.1714 60.6055Z" fill="#020303"/>
<path d="M80.1268 59.7212L73.3902 59.708L73.4034 54.1315L69.8766 54.1249L69.8502 68.4917L73.377 68.4983L73.3836 62.6975L80.1202 62.7041L80.107 68.5115L83.6074 68.5181L83.6338 54.1513L80.1334 54.1447L80.1268 59.7212Z" fill="#020303"/>
<path d="M90.3507 54.1646L85.3643 68.518L89.0892 68.5246L89.9808 65.7265L96.6448 65.7397L97.5166 68.5378L101.288 68.5444L96.3542 54.1712L90.3507 54.1646ZM91.949 59.5826C91.9886 59.444 92.0349 59.312 92.0745 59.1933C92.4509 57.9526 92.7746 56.8505 93.0453 55.8804H93.6596C93.7322 56.1312 93.7983 56.3886 93.8775 56.6525C94.0162 57.1409 94.1549 57.6424 94.3068 58.1638C94.637 59.2724 94.8154 59.8862 94.8616 59.9984L95.8655 63.166L90.7998 63.1594L91.8103 59.9918C91.8565 59.8532 91.9028 59.7146 91.949 59.5826Z" fill="#020303"/>
<path d="M114.986 62.4731C116.042 61.7669 116.577 60.6055 116.577 58.9886C116.577 57.3718 116.128 56.1707 115.223 55.3854C114.319 54.6001 113.004 54.2107 111.274 54.2041L103.058 54.1909L103.031 68.551L106.552 68.5576L106.558 63.5158L109.874 63.5224L112.866 68.5708L116.842 68.5774L113.546 63.1528C114.081 62.9812 114.563 62.7568 114.986 62.4731ZM106.571 56.9494L110.917 56.956C111.67 56.956 112.212 57.1276 112.535 57.4708C112.859 57.8139 113.017 58.3155 113.017 58.9754C113.017 59.6486 112.839 60.1501 112.489 60.4867C112.139 60.8232 111.525 60.9882 110.646 60.9882L106.571 60.9816V56.9494Z" fill="#020303"/>
<path d="M119.114 68.5788L122.634 68.5853L122.661 54.2252L119.141 54.2187L119.114 68.5788Z" fill="#020303"/>
<path d="M136.186 66.9078H135.711L135.301 65.3042C135.209 64.9346 135.057 64.4133 134.852 63.7402C134.555 62.6579 134.258 61.5756 133.96 60.5065C133.67 59.4374 133.379 58.3617 133.089 57.2728L132.144 54.2438L126.028 54.2306L126.002 68.5906L129.172 68.5973L129.199 55.9398H129.674C129.714 56.184 129.852 56.7251 130.084 57.5434C130.15 57.8206 130.222 58.0846 130.302 58.3485C130.374 58.6125 130.453 58.8699 130.539 59.1338C130.757 59.8598 130.969 60.5923 131.173 61.3248C131.378 62.0573 131.589 62.7899 131.807 63.5158C132.039 64.3539 132.276 65.1986 132.514 66.0499C132.752 66.9012 133.003 67.7525 133.26 68.6038L139.376 68.617L139.403 54.257L136.232 54.2504L136.186 66.9078Z" fill="#020303"/>
<path d="M158.43 61.6879C158.424 61.5691 158.411 61.4503 158.397 61.3249L150.677 61.3117L149.97 63.2453L154.824 63.2519C154.692 64.0042 154.355 64.5916 153.814 65.0205C153.015 65.6474 151.806 65.9642 150.188 65.9576C148.524 65.9576 147.341 65.5814 146.628 64.8291C145.915 64.0834 145.558 62.9813 145.565 61.5229C145.565 60.0578 145.928 58.9359 146.641 58.1572C147.355 57.3851 148.543 56.9957 150.208 57.0023C151.047 57.0023 151.753 57.0947 152.328 57.2729C152.902 57.4511 153.371 57.7151 153.735 58.0648C154.098 58.4146 154.375 58.8568 154.567 59.3913L158.378 59.3979C157.995 57.5699 157.123 56.2236 155.749 55.3525C154.375 54.4814 152.533 54.0392 150.214 54.0326C147.493 54.026 145.419 54.6398 143.993 55.8607C142.56 57.0881 141.846 58.9689 141.84 61.5031C141.833 64.0438 142.54 65.9114 143.96 67.1125C145.38 68.3136 147.454 68.9207 150.188 68.9273C152.083 68.9339 153.629 68.6567 154.831 68.1156C156.033 67.5678 156.918 66.8221 157.479 65.8652C158.041 64.9149 158.358 63.7732 158.411 62.4402C158.424 62.3742 158.43 62.3016 158.43 62.2224C158.43 62.1498 158.43 62.0772 158.43 62.0046C158.437 61.9188 158.437 61.8066 158.43 61.6879Z" fill="#020303"/>
<path fill-rule="evenodd" clip-rule="evenodd" d="M34.3084 8.26549L32.0401 5.99899L27.9697 10.0708C27.9696 10.0709 27.9694 10.0711 27.9693 10.0712C16.3129 21.738 9.44757 31.344 6.57629 38.988C5.15094 42.7825 4.75259 45.9814 5.14224 48.6585C5.52664 51.2995 6.69789 53.5826 8.68298 55.5661C8.72936 55.6124 8.77695 55.66 8.82569 55.7086C7.86496 53.6518 7.58577 51.3822 7.89988 48.9814C8.37751 45.3307 10.2117 41.4174 12.8573 37.3456C17.8708 29.6291 26.3434 20.5428 36.4424 10.3905L34.3084 8.26549ZM36.0349 6.53744L32.0391 2.54486L26.2403 8.34565C2.76115 31.8458 -2.3904 47.9546 6.95504 57.2927C8.27626 58.6128 10.5676 60.8903 12.8117 63.1208C14.9649 65.2611 17.0747 67.3581 18.2422 68.5247L21.2407 65.5286C20.9053 65.2098 20.272 64.5922 19.4901 63.8246C17.4233 61.7955 14.3188 58.7178 12.9388 57.3388C4.24757 48.6546 17.3931 33.0056 38.1733 12.1141C38.7427 11.5416 39.3179 10.9652 39.8985 10.3848L36.0349 6.53744Z" fill="url(#paint0_linear)"/>
<path d="M15.7589 31.2518V25.6226C13.6587 28.4009 11.8953 31.0406 10.4687 33.555V38.94C10.8914 38.2075 11.3537 37.4618 11.849 36.6962C12.9586 34.9936 14.2531 33.1854 15.7589 31.2518Z" fill="#CE3A5B"/>
<path d="M7.9854 38.6232C7.87973 38.8806 7.78066 39.138 7.68159 39.3953C6.39369 42.8204 5.93137 45.8825 6.31444 48.476C6.38709 48.9577 6.47955 49.4197 6.61164 49.875C6.63146 49.5253 6.67108 49.1755 6.71732 48.8192C6.91545 47.2947 7.33815 45.6977 7.99201 44.0083V38.6232H7.9854Z" fill="#CE3A5B"/>
<path d="M23.6579 21.96V16.245C21.7426 18.3238 19.9726 20.3432 18.3677 22.3032V27.9983C19.6357 26.4739 21.0227 24.8835 22.5285 23.2007C22.8984 22.7981 23.2749 22.3823 23.6579 21.96Z" fill="#CE3A5B"/>
<path d="M32.0193 7.68573L28.8095 10.893C28.1028 11.6057 27.4093 12.3052 26.7291 13.0048V18.6538C28.3274 16.9577 30.0776 15.1429 32.0193 13.1565V7.68573Z" fill="#CE3A5B"/>
<path fill-rule="evenodd" clip-rule="evenodd" d="M9.17691 95.7741L11.4452 98.0406L15.5156 93.9688C15.5157 93.9687 15.5159 93.9685 15.5161 93.9684C27.1724 82.3016 34.0377 72.6956 36.909 65.0517C38.3344 61.2571 38.7327 58.0582 38.343 55.3811C37.9586 52.7401 36.7874 50.4571 34.8023 48.4736C34.7559 48.4272 34.7083 48.3797 34.6596 48.331C35.6203 50.3878 35.8995 52.6574 35.5854 55.0582C35.1078 58.7089 33.2735 62.6222 30.628 66.694C25.6145 74.4105 17.1419 83.4968 7.04296 93.6491L9.17691 95.7741ZM7.45044 97.5022L11.4462 101.495L17.245 95.6939C40.7241 72.1939 45.8757 56.085 36.5303 46.747C35.209 45.4268 32.9177 43.1493 30.6736 40.9188C28.5204 38.7786 26.4106 36.6816 25.2431 35.515L22.2446 38.5111C22.58 38.8299 23.2133 39.4474 23.9952 40.215C26.062 42.2442 29.1665 45.3218 30.5465 46.7008C39.2377 55.3851 26.0922 71.034 5.31203 91.9255C4.74258 92.498 4.1674 93.0744 3.58678 93.6548L7.45044 97.5022Z" fill="url(#paint1_linear)"/>
<path d="M27.7263 72.7878L27.7263 78.4171C29.8266 75.6387 31.59 72.999 33.0166 70.4847L33.0166 65.0997C32.5939 65.8322 32.1316 66.5779 31.6362 67.3434C30.5267 69.046 29.2322 70.8542 27.7263 72.7878Z" fill="#CE3A5B"/>
<path d="M35.4998 65.4163C35.6055 65.1589 35.7046 64.9016 35.8037 64.6442C37.0915 61.2192 37.5539 58.1571 37.1708 55.5636C37.0981 55.0819 37.0057 54.6199 36.8736 54.1646C36.8538 54.5143 36.8142 54.8641 36.7679 55.2205C36.5698 56.7449 36.1471 58.3419 35.4932 60.0313L35.4932 65.4163L35.4998 65.4163Z" fill="#CE3A5B"/>
<path d="M19.8273 82.0797L19.8273 87.7946C21.7426 85.7159 23.5126 83.6965 25.1176 81.7365L25.1176 76.0413C23.8495 77.5657 22.4625 79.1562 20.9567 80.839C20.5868 81.2415 20.2104 81.6573 19.8273 82.0797Z" fill="#CE3A5B"/>
<path d="M11.4659 96.3539L14.6757 93.1466C15.3824 92.4339 16.0759 91.7344 16.7562 91.0348L16.7562 85.3859C15.1579 87.0819 13.4077 88.8967 11.4659 90.8831L11.4659 96.3539Z" fill="#CE3A5B"/>
<defs>
<linearGradient id="paint0_linear" x1="21.2217" y1="2.54401" x2="21.2217" y2="68.5222" gradientUnits="userSpaceOnUse">
<stop stop-color="#9E2429"/>
<stop offset="0.8846" stop-color="#CE3A58"/>
<stop offset="1" stop-color="#CE3A58"/>
</linearGradient>
<linearGradient id="paint1_linear" x1="22.2636" y1="101.496" x2="22.2636" y2="35.5174" gradientUnits="userSpaceOnUse">
<stop stop-color="#9E2429"/>
<stop offset="0.8846" stop-color="#CE3A58"/>
<stop offset="1" stop-color="#CE3A58"/>
</linearGradient>
</defs>
</svg>

<svg width="161" height="104" viewBox="0 0 161 104" fill="none" xmlns="http://www.w3.org/2000/svg"><path d="M73.166 36.122l-3.375-.007-.02 11.444-4.102-.007.02-11.443-3.375-.007-.02 11.444-4.12-.007.02-11.443-3.376-.007-.026 14.367 18.347.033.027-14.367zm2.219 14.492c.112 0 .237.007.39.013.151.007.323.014.515.014 1.221 0 2.146-.251 2.78-.766.634-.515 1.083-1.3 1.34-2.356.265-1.056.457-2.58.589-4.567.026-.244.06-.838.086-1.768.059-1.333.092-2.092.105-2.284l5.066.007-.02 11.608 3.54.007.026-14.36-11.822-.02c-.026.963-.053 1.755-.066 2.389a179.26 179.26 0 01-.171 4.421c-.086 1.307-.199 2.284-.344 2.93-.145.654-.37 1.122-.674 1.406-.303.29-.752.429-1.36.429h-.29l-.007 2.884h.132a.59.59 0 01.185.013zM96.15 47.73l6.663.014.872 2.798 3.771.006-4.94-14.373-5.99-.013-4.986 14.353 3.724.007.886-2.792zm1.968-6.15c.04-.139.086-.27.125-.39.377-1.24.7-2.342.971-3.313h.614c.073.251.139.509.218.773.139.488.278.99.429 1.51.331 1.11.509 1.723.555 1.836l1.004 3.167-5.066-.006 1.01-3.168c.047-.132.1-.27.14-.41zm14.642-2.376l7.338.013v-3.01l-10.872-.019-.026 14.367 3.54.006.02-11.357zM66.171 60.605c-1.037-.633-2.457-.95-4.273-.956h-.97c-.78 0-1.4-.04-1.843-.106-.45-.066-.786-.198-1.017-.396-.231-.191-.35-.482-.35-.864 0-.522.277-.924.825-1.215.548-.29 1.255-.429 2.12-.429.813 0 1.506.126 2.087.377.581.25.99.68 1.222 1.3l3.725.006c-.324-1.577-1.11-2.706-2.351-3.379-1.242-.673-2.8-1.016-4.683-1.016-1.096 0-2.133.158-3.11.475-.978.323-1.764.819-2.371 1.498-.608.68-.912 1.511-.912 2.501 0 1.096.264 1.947.8 2.554.534.607 1.221 1.017 2.066 1.228.846.218 1.836.323 2.972.323h1.176c.647 0 1.176.04 1.598.119.416.08.747.23.978.455.231.225.35.555.35.977 0 .62-.284 1.069-.845 1.346-.562.277-1.308.422-2.226.416-1.03 0-1.823-.145-2.391-.429-.561-.284-.925-.713-1.09-1.287l-3.91-.006c.324 1.63 1.117 2.81 2.365 3.543 1.248.733 2.88 1.096 4.9 1.102 1.262 0 2.398-.165 3.408-.495 1.01-.336 1.81-.857 2.404-1.577.595-.72.892-1.623.892-2.706.007-1.61-.509-2.725-1.546-3.358zm13.956-.884l-6.737-.013.013-5.576-3.526-.007-.027 14.367 3.527.006.007-5.8 6.736.006-.013 5.807 3.5.007.027-14.367-3.5-.006-.007 5.576zm10.223-5.556l-4.986 14.353 3.725.007.892-2.799 6.664.014.872 2.798 3.771.006-4.934-14.373-6.003-.006zm1.599 5.418c.04-.139.086-.271.126-.39.376-1.24.7-2.343.97-3.313h.615c.072.251.138.509.218.773.138.488.277.99.429 1.51.33 1.11.508 1.723.555 1.835l1.004 3.168-5.066-.007 1.01-3.167c.046-.139.093-.277.139-.41zm23.037 2.89c1.056-.706 1.591-1.867 1.591-3.484s-.449-2.818-1.354-3.604c-.904-.785-2.219-1.174-3.949-1.18l-8.216-.014-.027 14.36 3.521.007.006-5.042 3.316.006 2.992 5.049 3.976.006-3.296-5.424a5.69 5.69 0 001.44-.68zm-8.415-5.524l4.346.007c.753 0 1.295.172 1.618.515.324.343.482.845.482 1.504 0 .674-.178 1.175-.528 1.512-.35.336-.964.501-1.843.501l-4.075-.006v-4.033zm12.543 11.63l3.52.006.027-14.36-3.52-.006-.027 14.36zm17.072-1.671h-.475l-.41-1.604c-.092-.37-.244-.89-.449-1.564a838.344 838.344 0 00-.892-3.233c-.29-1.07-.581-2.145-.871-3.234l-.945-3.03-6.116-.012-.026 14.36 3.17.006.027-12.657h.475c.04.244.178.785.41 1.603.066.278.138.542.218.806.072.264.151.52.237.785.218.726.43 1.458.634 2.19.205.733.416 1.466.634 2.192.232.838.469 1.683.707 2.534.238.851.489 1.703.746 2.554l6.116.013.027-14.36-3.171-.007-.046 12.658zm22.244-5.22a6.01 6.01 0 00-.033-.363l-7.72-.013-.707 1.933 4.854.007c-.132.752-.469 1.34-1.01 1.768-.799.627-2.008.944-3.626.938-1.664 0-2.847-.377-3.56-1.129-.713-.746-1.07-1.848-1.063-3.306 0-1.465.363-2.587 1.076-3.366.714-.772 1.902-1.161 3.567-1.155.839 0 1.545.093 2.12.27.574.18 1.043.443 1.407.793.363.35.64.792.832 1.326l3.811.007c-.383-1.828-1.255-3.174-2.629-4.046-1.374-.87-3.216-1.313-5.535-1.32-2.721-.006-4.795.608-6.221 1.829-1.433 1.227-2.147 3.108-2.153 5.642-.007 2.54.7 4.408 2.12 5.61 1.42 1.2 3.494 1.808 6.228 1.814 1.895.007 3.441-.27 4.643-.811 1.202-.548 2.087-1.294 2.648-2.25.562-.951.879-2.093.932-3.426a1.13 1.13 0 00.019-.218v-.217a2.376 2.376 0 000-.317z" fill="#020303"/><path fill-rule="evenodd" clip-rule="evenodd" d="M34.308 8.265L32.04 6l-4.07 4.072C16.312 21.738 9.447 31.344 6.575 38.988c-1.425 3.794-1.823 6.993-1.434 9.67.385 2.642 1.556 4.925 3.541 6.908l.143.143c-.961-2.057-1.24-4.327-.926-6.728.478-3.65 2.312-7.564 4.957-11.635 5.014-7.717 13.486-16.803 23.585-26.955l-2.134-2.126zm1.727-1.728l-3.996-3.992-5.799 5.8C2.761 31.846-2.39 47.956 6.955 57.294c1.321 1.32 3.613 3.597 5.857 5.828 2.153 2.14 4.263 4.237 5.43 5.404l2.999-2.996a188.32 188.32 0 01-1.75-1.704c-2.068-2.03-5.172-5.107-6.552-6.486-8.691-8.684 4.454-24.333 25.234-45.225l1.725-1.73-3.863-3.847z" fill="url(#paint0_linear)"/><path d="M15.759 31.252v-5.63c-2.1 2.779-3.864 5.419-5.29 7.933v5.385c.422-.732.885-1.478 1.38-2.244a79.918 79.918 0 013.91-5.444zm-7.774 7.371c-.105.258-.204.515-.303.772-1.288 3.425-1.75 6.487-1.368 9.081.073.482.166.944.298 1.399.02-.35.06-.7.105-1.056.198-1.524.621-3.121 1.275-4.81v-5.386h-.007zM23.658 21.96v-5.715a138.446 138.446 0 00-5.29 6.058v5.695a177.018 177.018 0 014.16-4.797c.37-.403.747-.819 1.13-1.241zM32.02 7.686l-3.21 3.207c-.707.713-1.4 1.412-2.08 2.112v5.649a419.69 419.69 0 015.29-5.498v-5.47z" fill="#CE3A5B"/><path fill-rule="evenodd" clip-rule="evenodd" d="M9.177 95.774l2.268 2.267 4.07-4.072h.001C27.172 82.301 34.038 72.695 36.91 65.051c1.425-3.795 1.824-6.994 1.434-9.67-.384-2.642-1.556-4.925-3.54-6.908l-.143-.143c.96 2.057 1.24 4.326.925 6.727-.477 3.65-2.312 7.564-4.957 11.636-5.014 7.716-13.486 16.803-23.585 26.955l2.134 2.125zM7.45 97.502l3.996 3.993 5.799-5.801c23.48-23.5 28.63-39.609 19.285-48.947-1.321-1.32-3.612-3.598-5.856-5.828-2.154-2.14-4.263-4.237-5.43-5.404l-3 2.996c.336.319.97.936 1.751 1.704a1332.74 1332.74 0 016.552 6.486c8.69 8.684-4.455 24.333-25.235 45.224-.57.573-1.145 1.15-1.725 1.73l3.863 3.847z" fill="url(#paint1_linear)"/><path d="M27.726 72.788v5.63c2.1-2.78 3.864-5.419 5.29-7.933V65.1a51.824 51.824 0 01-1.38 2.243 79.849 79.849 0 01-3.91 5.445zm7.774-7.372c.105-.257.205-.514.304-.772 1.288-3.425 1.75-6.487 1.367-9.08a10.734 10.734 0 00-.297-1.4c-.02.35-.06.7-.106 1.056-.198 1.525-.62 3.122-1.275 4.811v5.385h.007zM19.827 82.08v5.715a138.459 138.459 0 005.29-6.058V76.04a177.204 177.204 0 01-4.16 4.798c-.37.403-.747.818-1.13 1.24zm-8.361 14.274l3.21-3.207c.706-.713 1.4-1.413 2.08-2.112v-5.65a419.74 419.74 0 01-5.29 5.498v5.47z" fill="#CE3A5B"/><defs><linearGradient id="paint0_linear" x1="21.222" y1="2.544" x2="21.222" y2="68.522" gradientUnits="userSpaceOnUse"><stop stop-color="#9E2429"/><stop offset=".885" stop-color="#CE3A58"/><stop offset="1" stop-color="#CE3A58"/></linearGradient><linearGradient id="paint1_linear" x1="22.264" y1="101.496" x2="22.264" y2="35.517" gradientUnits="userSpaceOnUse"><stop stop-color="#9E2429"/><stop offset=".885" stop-color="#CE3A58"/><stop offset="1" stop-color="#CE3A58"/></linearGradient></defs></svg>
